src/status/24/gpm-keyboard-030.svg

<svg viewBox="0 0 24 24" xmlns="http://www.w3.org/2000/svg">
 <path d="m8 2c-1.108 0-2 0.81109-2 1.8184v16.363c0 1.0073 0.892 1.8184 2 1.8184h8c1.108 0 2-0.81109 2-1.8184v-16.363c0-1.0073-0.892-1.8184-2-1.8184h-8zm0.5 2h3 1c0.277 0 0.5 0.223 0.5 0.5v1 2c0 0.277-0.223 0.5-0.5 0.5h-1c-0.277 0-0.5-0.223-0.5-0.5v-1.5h-2.5c-0.277 0-0.5-0.223-0.5-0.5v-1c0-0.277 0.223-0.5 0.5-0.5zm6 0h1c0.277 0 0.5 0.223 0.5 0.5v1c0 0.277-0.223 0.5-0.5 0.5h-1c-0.277 0-0.5-0.223-0.5-0.5v-1c0-0.277 0.223-0.5 0.5-0.5zm-6 3h1c0.277 0 0.5 0.223 0.5 0.5v1c0 0.277-0.223 0.5-0.5 0.5h-1c-0.277 0-0.5-0.223-0.5-0.5v-1c0-0.277 0.223-0.5 0.5-0.5zm6 0h1c0.277 0 0.5 0.223 0.5 0.5v9c0 0.277-0.223 0.5-0.5 0.5h-1c-0.277 0-0.5-0.223-0.5-0.5v-9c0-0.277 0.223-0.5 0.5-0.5zm-3 2h1c0.277 0 0.5 0.223 0.5 0.5v1c0 0.277-0.223 0.5-0.5 0.5h-1c-0.277 0-0.5-0.223-0.5-0.5v-1c0-0.277 0.223-0.5 0.5-0.5zm-3 1h1c0.277 0 0.5 0.223 0.5 0.5v1c0 0.277-0.223 0.5-0.5 0.5h-1c-0.277 0-0.5-0.223-0.5-0.5v-1c0-0.277 0.223-0.5 0.5-0.5zm3 2h1c0.277 0 0.5 0.223 0.5 0.5v1c0 0.277-0.223 0.5-0.5 0.5h-1c-0.277 0-0.5-0.223-0.5-0.5v-1c0-0.277 0.223-0.5 0.5-0.5zm-3 1h1c0.277 0 0.5 0.223 0.5 0.5v1c0 0.277-0.223 0.5-0.5 0.5h-1c-0.277 0-0.5-0.223-0.5-0.5v-1c0-0.277 0.223-0.5 0.5-0.5zm3 2h1c0.277 0 0.5 0.223 0.5 0.5v1c0 0.277-0.223 0.5-0.5 0.5h-1c-0.277 0-0.5-0.223-0.5-0.5v-1c0-0.277 0.223-0.5 0.5-0.5zm-3 1h1c0.277 0 0.5 0.223 0.5 0.5v3c0 0.277-0.223 0.5-0.5 0.5h-1c-0.277 0-0.5-0.223-0.5-0.5v-3c0-0.277 0.223-0.5 0.5-0.5zm3 2h1c0.277 0 0.5 0.223 0.5 0.5v1c0 0.277-0.223 0.5-0.5 0.5h-1c-0.277 0-0.5-0.223-0.5-0.5v-1c0-0.277 0.223-0.5 0.5-0.5zm3 0h1c0.277 0 0.5 0.223 0.5 0.5v1c0 0.277-0.223 0.5-0.5 0.5h-1c-0.277 0-0.5-0.223-0.5-0.5v-1c0-0.277 0.223-0.5 0.5-0.5z" fill="#2e3440" opacity=".4"/>
 <path d="m6 16v4.1816c0 1.0073 0.892 1.8184 2 1.8184h8c1.108 0 2-0.81109 2-1.8184v-4.1816h-2v0.5c0 0.277-0.223 0.5-0.5 0.5h-1c-0.277 0-0.5-0.223-0.5-0.5v-0.5h-1v0.5c0 0.277-0.223 0.5-0.5 0.5h-1c-0.277 0-0.5-0.223-0.5-0.5v-0.5h-1.5c0.277 0 0.5 0.223 0.5 0.5v3c0 0.277-0.223 0.5-0.5 0.5h-1c-0.277 0-0.5-0.223-0.5-0.5v-3c0-0.277 0.223-0.5 0.5-0.5h-2.5zm5.5 2h1c0.277 0 0.5 0.223 0.5 0.5v1c0 0.277-0.223 0.5-0.5 0.5h-1c-0.277 0-0.5-0.223-0.5-0.5v-1c0-0.277 0.223-0.5 0.5-0.5zm3 0h1c0.277 0 0.5 0.223 0.5 0.5v1c0 0.277-0.223 0.5-0.5 0.5h-1c-0.277 0-0.5-0.223-0.5-0.5v-1c0-0.277 0.223-0.5 0.5-0.5z" fill="#2e3440"/>
</svg>

<svg xmlns="http://www.w3.org/2000/svg" viewBox="0 0 24 24">
 <path d="M 8,2 C 6.892,2 6,2.8110867 6,3.8183594 L 6,20.181641 C 6,21.188914 6.892,22 8,22 l 8,0 c 1.108,0 2,-0.811086 2,-1.818359 L 18,3.8183594 C 18,2.8110867 17.108,2 16,2 L 8,2 Z m 0.5,2 3,0 1,0 C 12.777,4 13,4.223 13,4.5 l 0,1 0,2 C 13,7.777 12.777,8 12.5,8 l -1,0 C 11.223,8 11,7.777 11,7.5 L 11,6 8.5,6 C 8.223,6 8,5.777 8,5.5 l 0,-1 C 8,4.223 8.223,4 8.5,4 Z m 6,0 1,0 C 15.777,4 16,4.223 16,4.5 l 0,1 C 16,5.777 15.777,6 15.5,6 l -1,0 C 14.223,6 14,5.777 14,5.5 l 0,-1 C 14,4.223 14.223,4 14.5,4 Z m -6,3 1,0 C 9.777,7 10,7.223 10,7.5 l 0,1 C 10,8.777 9.777,9 9.5,9 l -1,0 C 8.223,9 8,8.777 8,8.5 l 0,-1 C 8,7.223 8.223,7 8.5,7 Z m 6,0 1,0 C 15.777,7 16,7.223 16,7.5 l 0,9 c 0,0.277 -0.223,0.5 -0.5,0.5 l -1,0 C 14.223,17 14,16.777 14,16.5 l 0,-9 C 14,7.223 14.223,7 14.5,7 Z m -3,2 1,0 C 12.777,9 13,9.223 13,9.5 l 0,1 c 0,0.277 -0.223,0.5 -0.5,0.5 l -1,0 C 11.223,11 11,10.777 11,10.5 l 0,-1 C 11,9.223 11.223,9 11.5,9 Z m -3,1 1,0 c 0.277,0 0.5,0.223 0.5,0.5 l 0,1 C 10,11.777 9.777,12 9.5,12 l -1,0 C 8.223,12 8,11.777 8,11.5 l 0,-1 C 8,10.223 8.223,10 8.5,10 Z m 3,2 1,0 c 0.277,0 0.5,0.223 0.5,0.5 l 0,1 c 0,0.277 -0.223,0.5 -0.5,0.5 l -1,0 C 11.223,14 11,13.777 11,13.5 l 0,-1 C 11,12.223 11.223,12 11.5,12 Z m -3,1 1,0 c 0.277,0 0.5,0.223 0.5,0.5 l 0,1 C 10,14.777 9.777,15 9.5,15 l -1,0 C 8.223,15 8,14.777 8,14.5 l 0,-1 C 8,13.223 8.223,13 8.5,13 Z m 3,2 1,0 c 0.277,0 0.5,0.223 0.5,0.5 l 0,1 c 0,0.277 -0.223,0.5 -0.5,0.5 l -1,0 C 11.223,17 11,16.777 11,16.5 l 0,-1 C 11,15.223 11.223,15 11.5,15 Z m -3,1 1,0 c 0.277,0 0.5,0.223 0.5,0.5 l 0,3 C 10,19.777 9.777,20 9.5,20 l -1,0 C 8.223,20 8,19.777 8,19.5 l 0,-3 C 8,16.223 8.223,16 8.5,16 Z m 3,2 1,0 c 0.277,0 0.5,0.223 0.5,0.5 l 0,1 c 0,0.277 -0.223,0.5 -0.5,0.5 l -1,0 C 11.223,20 11,19.777 11,19.5 l 0,-1 C 11,18.223 11.223,18 11.5,18 Z m 3,0 1,0 c 0.277,0 0.5,0.223 0.5,0.5 l 0,1 c 0,0.277 -0.223,0.5 -0.5,0.5 l -1,0 C 14.223,20 14,19.777 14,19.5 l 0,-1 C 14,18.223 14.223,18 14.5,18 Z" style="fill:#2e3440;opacity:0.4;fill-opacity:1"/>
 <path d="m 6,16 0,4.181641 C 6,21.188914 6.892,22 8,22 l 8,0 c 1.108,0 2,-0.811086 2,-1.818359 L 18,16 l -2,0 0,0.5 c 0,0.277 -0.223,0.5 -0.5,0.5 l -1,0 C 14.223,17 14,16.777 14,16.5 l 0,-0.5 -1,0 0,0.5 c 0,0.277 -0.223,0.5 -0.5,0.5 l -1,0 C 11.223,17 11,16.777 11,16.5 L 11,16 9.5,16 c 0.277,0 0.5,0.223 0.5,0.5 l 0,3 C 10,19.777 9.777,20 9.5,20 l -1,0 C 8.223,20 8,19.777 8,19.5 l 0,-3 C 8,16.223 8.223,16 8.5,16 L 6,16 Z m 5.5,2 1,0 c 0.277,0 0.5,0.223 0.5,0.5 l 0,1 c 0,0.277 -0.223,0.5 -0.5,0.5 l -1,0 C 11.223,20 11,19.777 11,19.5 l 0,-1 C 11,18.223 11.223,18 11.5,18 Z m 3,0 1,0 c 0.277,0 0.5,0.223 0.5,0.5 l 0,1 c 0,0.277 -0.223,0.5 -0.5,0.5 l -1,0 C 14.223,20 14,19.777 14,19.5 l 0,-1 C 14,18.223 14.223,18 14.5,18 Z" style="fill:#2e3440;opacity:1;fill-opacity:1"/>
</svg>
